packages/svg/home-bold.svg

<svg viewBox="0 0 24 24" fill="none" xmlns="http://www.w3.org/2000/svg">
<path d="M20.83 8.01002L14.28 2.77002C13 1.75002 11 1.74002 9.72996 2.76002L3.17996 8.01002C2.23996 8.76002 1.66996 10.26 1.86996 11.44L3.12996 18.98C3.41996 20.67 4.98996 22 6.69996 22H17.3C18.99 22 20.59 20.64 20.88 18.97L22.14 11.43C22.32 10.26 21.75 8.76002 20.83 8.01002ZM12.75 18C12.75 18.41 12.41 18.75 12 18.75C11.59 18.75 11.25 18.41 11.25 18V15C11.25 14.59 11.59 14.25 12 14.25C12.41 14.25 12.75 14.59 12.75 15V18Z" fill="currentColor"/>
</svg>

<svg width="24" height="24" fill="none" xmlns="http://www.w3.org/2000/svg"><path d="m20.83 8.01-6.55-5.24C13 1.75 11 1.74 9.73 2.76L3.18 8.01c-.94.75-1.51 2.25-1.31 3.43l1.26 7.54C3.42 20.67 4.99 22 6.7 22h10.6c1.69 0 3.29-1.36 3.58-3.03l1.26-7.54c.18-1.17-.39-2.67-1.31-3.42ZM12.75 18c0 .41-.34.75-.75.75s-.75-.34-.75-.75v-3c0-.41.34-.75.75-.75s.75.34.75.75v3Z" fill="#292D32"/></svg>
